X:1
T:The Isle of Skye Local Militia
M:C|
L:1/8
Q:80
C:
S:2/4 March
K:HP
|: {g}f/2e/2 | \
{Gdc}d{g}B{gBd}B{e}A/2B/2 | \
{Gdc}d{g}A{GAG}A{g}f/2e/2 |
{Gdc}d{g}B{gBd}B{e}A/2B/2 | \
{g}f2{g}e/2g/2f/2e/2 | \
{Gdc}d{g}B{gBd}B{e}A/2B/2 |
{Gdc}d{g}A{GAG}A{g}f/2e/2 | \
{Gdc}d/2{g}B3/2{Gdc}d3/2e/2 | \
{g}f2{g}e:| [ |
{g}f/2e/2 | \
{Gdc}d3/2e/2{g}f{g}e/4f3/4 | \
{ag}ae{g}e{g}f3/4e/4 |
{Gdc}d3/2e/2{g}f{g}e/4f3/4 | \
{ag}a2{g}e{g}f/4e3/4 | \
{Gdc}d3/2e/2{g}f{g}e/4f3/4 |
{ag}ae{g}e{g}f3/4e/4 | \
{Gdc}d{g}B{gBd}B{e}A3/4B/4 | \
{g}f2{g}e{g}f3/4e/4{Gdc}d3/2e/2{g}f{g}e/4f3/4 |
{ag}ae{g}e{g}f3/4e/4 | \
{Gdc}d3/2e/2{g}f{g}e/4f3/4 | \
{ag}a2e2 |
{g}f2{g}fe/4f3/4 | \
{ag}ae{g}e{g}f3/4e/4 | \
{Gdc}d/2{e}B3/2{Gdc}d3/2e/2 |
{g}f2{g}e/2g/2f/2e/2|]
